X:63
T: ICH KUMM AUS FREMDEN LANDEN
N: E1062A
O: Europa, Mitteleuropa, Deutschland
R: Raetsel -, Brauchtums - Lied, Reigen - Tanz
M: 4/4
L: 1/8
K: F
c | c2c2d2c2 | c2B2A2z
A | A2c2c2B2 | A2G2F2z
F | F2G2A2A2 | F2G2A2z
A | A2c2c2A2 | B2G2F2z

@@@ Tune index: 4747
